X:135
T: HANI EN BLAUEN STORKEN GSEH
N: E0071
O: Europa, Mitteleuropa, Deutschland, Schwaben
R: erzaehlendes Volks - Lied, Sage, Liebe
M: 4/4
L: 1/8
K: G
D2 | G3DG2A2 | B2A2G2
Bc | d3dd2B2 | A4z2
GB | d2d2d2B2 | e4d2
Bc | d2d2B2A2 | G4z2

